icons/alert-hex-17.svg

<svg width="16" height="17" viewBox="0 0 16 17" fill="none" xmlns="http://www.w3.org/2000/svg">
<path fill-rule="evenodd" clip-rule="evenodd" d="M5.35225 2.36519C5.45774 2.2597 5.60082 2.20044 5.75 2.20044H10.25C10.3992 2.20044 10.5423 2.2597 10.6477 2.36519L13.8352 5.55269C13.9408 5.65818 14 5.80126 14 5.95044V10.4504C14 10.5996 13.9408 10.7427 13.8352 10.8482L10.6477 14.0357C10.5423 14.1412 10.3992 14.2004 10.25 14.2004H5.75C5.60082 14.2004 5.45774 14.1412 5.35225 14.0357L2.16475 10.8482C2.05926 10.7427 2 10.5996 2 10.4504V5.95044C2 5.80126 2.05926 5.65818 2.16475 5.55269L5.35225 2.36519ZM5.983 3.32544L3.125 6.18343V10.2174L5.983 13.0754H10.017L12.875 10.2174V6.18343L10.017 3.32544H5.983ZM8 5.20044C8.31066 5.20044 8.5625 5.45228 8.5625 5.76294V8.38794C8.5625 8.6986 8.31066 8.95044 8 8.95044C7.68934 8.95044 7.4375 8.6986 7.4375 8.38794V5.76294C7.4375 5.45228 7.68934 5.20044 8 5.20044ZM8 11.2004C8.41422 11.2004 8.75 10.8647 8.75 10.4504C8.75 10.0362 8.41422 9.70044 8 9.70044C7.58579 9.70044 7.25 10.0362 7.25 10.4504C7.25 10.8647 7.58579 11.2004 8 11.2004Z" fill="#272431"/>
</svg>

<svg xmlns="http://www.w3.org/2000/svg" width="16" height="17" viewBox="0 0 16 17"><path fill-rule="evenodd" d="M5.352 2.365A.563.563 0 015.75 2.2h4.5c.15 0 .292.06.398.165l3.187 3.188A.562.562 0 0114 5.95v4.5c0 .15-.06.293-.165.398l-3.187 3.188a.562.562 0 01-.398.164h-4.5a.562.562 0 01-.398-.164l-3.187-3.188A.563.563 0 012 10.45v-4.5c0-.149.06-.292.165-.397l3.187-3.188zm.631.96L3.125 6.183v4.034l2.858 2.858h4.034l2.858-2.858V6.183l-2.858-2.858H5.983zM8 5.2c.31 0 .563.252.563.563v2.625a.563.563 0 01-1.126 0V5.763c0-.31.252-.563.563-.563zm0 6a.75.75 0 100-1.5.75.75 0 000 1.5z"/></svg>
